images/VERSE.svg

<svg height="250" viewBox="0 0 250 250" width="250" xmlns="http://www.w3.org/2000/svg"><path d="m219.777344 120.914062c0 50.378907-41.632813 91.21875-92.984375 91.21875-51.351563 0-92.980469-40.839843-92.980469-91.21875 0-50.378906 41.628906-91.214843 92.980469-91.214843 51.351562 0 92.984375 40.835937 92.984375 91.214843zm0 0" fill="#fff"/><path d="m124.578125 250c68.796875 0 124.574219-55.964844 124.574219-125s-55.777344-125-124.574219-125c-68.804687 0-124.578125 55.964844-124.578125 125s55.773438 125 124.578125 125zm-.054687-43.996094c-29.8125-51.644531-76.335938-132.25-76.335938-132.25h66.277344l13.300781 23.035156h-39.363281l49.652344 85.769532s-8.246094 14.292968-13.53125 23.445312zm19.683593-34.101562 56.652344-98.148438h-27.035156l-29.65625 51.476563-10.425781-18.023438h-26.949219zm0 0" fill="#0085ff" fill-rule="evenodd"/></svg>

<svg xmlns="http://www.w3.org/2000/svg" xmlns:xlink="http://www.w3.org/1999/xlink" width="250px" height="250px" viewBox="0 0 250 250" version="1.1">
<g id="surface1">
<path style=" stroke:none;fill-rule:nonzero;fill:rgb(100%,100%,100%);fill-opacity:1;" d="M 219.777344 120.914062 C 219.777344 171.292969 178.144531 212.132812 126.792969 212.132812 C 75.441406 212.132812 33.8125 171.292969 33.8125 120.914062 C 33.8125 70.535156 75.441406 29.699219 126.792969 29.699219 C 178.144531 29.699219 219.777344 70.535156 219.777344 120.914062 Z M 219.777344 120.914062 "/>
<path style=" stroke:none;fill-rule:evenodd;fill:rgb(0%,52.156866%,100%);fill-opacity:1;" d="M 124.578125 250 C 193.375 250 249.152344 194.035156 249.152344 125 C 249.152344 55.964844 193.375 0 124.578125 0 C 55.773438 0 0 55.964844 0 125 C 0 194.035156 55.773438 250 124.578125 250 Z M 124.523438 206.003906 C 94.710938 154.359375 48.1875 73.753906 48.1875 73.753906 L 114.464844 73.753906 L 127.765625 96.789062 L 88.402344 96.789062 L 138.054688 182.558594 C 138.054688 182.558594 129.808594 196.851562 124.523438 206.003906 Z M 144.207031 171.902344 L 200.859375 73.753906 L 173.824219 73.753906 L 144.167969 125.230469 L 133.742188 107.207031 L 106.792969 107.207031 Z M 144.207031 171.902344 "/>
</g>
</svg>
